icons/voice-recognition-line.svg

<svg viewBox="0 0 24 24" fill="currentColor" xmlns="http://www.w3.org/2000/svg">
    <path d="M4.99805 15V19H8.99805V21H2.99805V15H4.99805ZM20.998 15V21H14.998V19H18.998V15H20.998ZM12.998 6V18H10.998V6H12.998ZM8.99805 9V15H6.99805V9H8.99805ZM16.998 9V15H14.998V9H16.998ZM8.99805 3V5H4.99805V9H2.99805V3H8.99805ZM20.998 3V9H18.998V5H14.998V3H20.998Z"/>
</svg>

<svg xmlns="http://www.w3.org/2000/svg" viewBox="0 0 24 24">
    <g>
        <path fill="none" d="M0 0h24v24H0z"/>
        <path d="M5 15v4h4v2H3v-6h2zm16 0v6h-6v-2h4v-4h2zm-8-9v12h-2V6h2zM9 9v6H7V9h2zm8 0v6h-2V9h2zM9 3v2H5v4H3V3h6zm12 0v6h-2V5h-4V3h6z"/>
    </g>
</svg>
